!!!COM: Music21
!!!OTL: mazurka_Fandangu
!!!OMV: mazurka_Fandangu
**kern
*clefG2
*k[f#]
*G:
*M3/4
=1
4b
8bL
8aJ
8bL
8gJ
=
8aL
8gJ
8f#L
8gJ
8f#L
8gJ
=
4b
8aL
8bJ
8ccL
8gJ
=
8aL
8gJ
4g
4g
=||
*M3/4
4b
8bL
8aJ
8bL
8gJ
=
8aL
8gJ
8f#L
8gJ
8f#L
8gJ
=
4b
8aL
8bJ
8ccL
8gJ
!!linebreak:original
=
8aL
8gJ
4g
4g
=||
4b
8bL
8aJ
8bL
8gJ
=
8aL
8gJ
4g
4g
=
4b
8aL
8bJ
8ccL
8gJ
=
8aL
8gJ
4g
4g
=||
4b
8bL
8aJ
8bL
8gJ
=
8aL
8gJ
4g
4g
=
4b
8aL
8bJ
8ccL
8gJ
!!linebreak:original
=
8aL
8gJ
4g
4g
=||
8ggL
8ff#J
8eeL
8ff#J
8ggL
8aaJ
=
2ff#
4dd
=
4ff#
8eeL
8ff#J
8ggL
8eeJ
=
8ddL
8ccJ
2b
=
8ggL
8ff#J
8eeL
8ff#J
8ggL
8aaJ
=
2ff#
4dd
=
4ee
8ddL
8ccJ
8bL
8aJ
=
2g
8aL
8bJ
!!linebreak:original
=||
2ee
4ee
=
8ccL
8bJ
4a
8bL
8ccJ
=
2dd
4dd
=
8bL
8aJ
4g
8aL
8bJ
=||
2ee
4ee
=
8ccL
8bJ
4a
8bL
8ccJ
=
2dd
4dd
=
8bL
8aJ
2g
=||
*-
